X:1
T:Title
%%score { 1 | 2 }
L:1/8
M:3/4
K:G
V:1 treble nm="Grand Piano"
V:2 treble 
V:1
 z2[Q:1/4=84] D/D/ | DG BB AG | FA- A4 | DF [FA] [Fc]2 [Fc] | [Fc][GB] A B3 | DG B d2 B | %6
 [DB][DA] [G,DG][G,CE] [CEG]2 | [^CEA][CEA] [CEA] [CEA]2 [DF] | %8
[M:5/8] [A,EG][A,DF][K:bass][G,^CE] [F,D]2 |[M:1/8] [F,D]/[F,D]/ | %10
[M:3/4] [F,CD][K:treble][A,CF] [CFA][EAc] [DGB][DFA] | [DGB]3 [B,DG]3 | %12
 [A,CD][CDF] [CFA] [EAc]2 [Ac] | [Ac][GB] [FA] [GB]3 | [GB][GB] [GB] [^DFB]2 [B,DF] | %15
 [A,EA][CEG] [G,CE][CE] [B,D]2 | [B,D][DG] [GB] [Gd]2 [DB] | A>B A [B,G]3 |] %18
V:2
 z2 [G,B,]/[G,B,]/ | [G,B,][G,B,D] [G,DG][G,DG][K:bass] [G,CD][G,B,D] | [D,A,D][D,F,D]- [D,F,D]4 | %3
 [D,F,C][D,A,C] [D,C] [D,A,]2 [F,A,] | [D,A,][D,G,] [D,F,D] [G,D]3 | %5
 [G,B,][K:treble][G,B,D] [G,DG] [G,B,G]2[K:bass] [G,D] | [G,,G,][A,,F,] B,,C, C,2 | %7
 A,,A,, A,, A,,2 A,, |[M:5/8] A,,A,,A,, D,2 |[M:1/8] D,/D,/ |[M:3/4] D,D, D,D, D,D, | G,3 G,,3 | %12
 D,D, D, D,2 [D,D] | [D,D][D,D] [D,D] [G,D]3 | [E,E][E,E] [E,E] B,,2 D, | C,C, C,[G,,G,] [G,,G,]2 | %16
 [G,,G,][B,,G,] [D,G,] [G,B,]2 [G,,G,] | [D,F,C]>[D,F,D] [D,F,C] [G,,G,]3 |] %18

